X:1
T:The Bright, Happy Home
T:The Bright, Happy Home
T:John William McGarvey, Jr.
T:John William McGarvey, Jr., 1890
T:Public Domain Courtesy of the Cyber Hymnal™
C:John William McGarvey, Jr.
Z:Public Domain
Z:Courtesy of the Cyber Hymnal™
%%score ( 1 2 ) ( 3 4 )
L:1/8
Q:1/4=105
M:4/4
K:C
V:1 treble 
V:2 treble 
V:3 bass 
V:4 bass 
V:1
 [EG]>[EG] | [Ec]2 [Ec]>[Ec] [Ec]2 [GB]>[FA] | [EG]4 [CE]2 [CE]>[CE] | %3
w: 1.~There’s a|bright, hap- py home o- ver|yon- der, On the|
w: 2.~There’s a|bright, hap- py home o- ver|yon- der, Where the|
w: 3.~There’s a|bright, hap- py home o- ver|yon- der, Where the|
 [B,D]2 ([CE][DF]) [EG]2 [DF]2 | [CE]6 [EG]>[EG] | [Ec]2 [Ec]2 (dc) (BA) | [EG]4 [CE]2 [EG]>[EG] | %7
w: bright e- * ter- nal|shore; Where the|saints shall dwell * with *|Je- sus, All the|
w: crys- tal * wa- ters|glide; Where the|tree of life * for- *|ev- er, Blo- oms|
w: song shall * ne- ver|cease; Where the|saints shall dwell * for- *|ev- er With the|
 [FA]2 [Fd]2 [Ec]2 [DB]2 | [Ec]6 ||"^Refrain" [EG]2 | [Ec]2 [Ec]>[Gc] [Fd][Ec] [Ge]>[Fd] | %11
w: glad for ev- er|more.|||
w: by the sil- ver|tide.|We’ll|meet with our Sav- ior in the|
w: Lord in per- fect|peace.|||
 [Ec]4 [EG]2 [EG]2 | [Ge]2 [Gd]2 [Gc]2 [Ge]2 | [Gd]6 G2 | [Ge]2 [Ge]>[Fd] [Ec]2 [Gc]>[Gc] | %15
w: ||||
w: morn- ing, That|Sav- ior full of|love; We’ll|dwell with our king, And for-|
w: ||||
 [Fd][Fc][Fc][FA] [EG]2 [EG][EG] | [FA]2 [Fd]2 [Ec]2 [DB]2 | [Ec]6 |] %18
w: |||
w: ev- er- more we’ll sing In that|hap- py home a-|bove.|
w: |||
V:2
 x2 | x8 | x8 | x8 | x8 | x4 F2 F2 | x8 | x8 | x6 || x2 | x8 | x8 | x8 | x6 G2 | x8 | x8 | x8 | %17
 x6 |] %18
V:3
 [C,C]>[C,C] | [C,G,]2 [C,G,]>[C,G,] [C,G,]2 [C,C]>[C,C] | [C,C]4 [C,G,]2 [C,G,]>[C,G,] | %3
 [G,,G,]2 [G,,G,]2 [G,,G,]2 G,2 | [C,G,]6 [C,C]>[C,C] | [C,G,]2 [C,G,]2 [F,A,]2 (A,B,) | %6
 [C,C]4 [C,G,]2 [C,C]>[C,C] | [F,C]2 [F,A,]2 G,2 [G,,G,]2 | [C,G,]6 || [C,G,]2 | %10
 [C,G,]2 [C,G,]>[E,G,] G,G, G,>G, | [C,G,]4 [C,C]2 [C,C]2 | [C,C]2 [D,B,]2 [E,C]2 [C,C]2 | %13
 [G,B,]6 [G,B,]2 | [C,C]2 [C,C]>[C,G,] [C,G,]2 [E,G,]>[E,G,] | %15
 [F,A,][F,A,][F,A,][F,C] [C,C]2 [C,C][C,C] | [F,C]2 [F,A,]2 G,2 [G,,G,]2 | [C,G,]6 |] %18
V:4
 x2 | x8 | x8 | x6 (A,,B,,) | x8 | x6 F,2 | x8 | x4 G,2 x2 | x6 || x2 | x4 G,G, G,>G, | x8 | x8 | %13
 x8 | x8 | x8 | x4 G,2 x2 | x6 |] %18

